!!!OTL: Die wohlige Ruhe.
!!!OTL-incipit:  IM ARM DER LIEBE
!!!COM: J. D. Gerstenberg
!!!ARE: Europa, Mitteleuropa, Deutschland
!!!SCT: F1045
!!!TXL: @@DE
!!!YEM: Copyright 1995, estate of Helmut Schaffrath.
**kern	**text
*ICvox	*
*clefG2	*
*M6/8	*
*k[b-]	*
*F:	*
!LO:TX:a:t=Gelaſſen.	!
!LO:TX:a:t=P:only the highest voice encoded:problem	!
{8f	Jm
=1	=1
(8.aL	Arm
16b-J)	.
8g	der
(8.fL	Lie-
16gJ)	.
8a	-be
=2	=2
(8.b-/L	ruht
16ccJ)	.
8a	ſich's
4g}	wohl,
{8b-/	wohl
=3	=3
(8a/L	auch
8ccJ)	.
8ff	in
(8ddL	Schooß
8b-J)	.
8g	der
=4	=4
4.f	Er-
4e}	-de.
{8f	Ob's
=5	=5
(8.aL	hier
16b-J)	.
8g	noch
(8.fL	o-
16gJ)	.
8a	-der
=6	=6
(8.b-/L	dort
16ccJ)	.
8a	ſein
4g}	ſoll,
{8b-/	daß
=7	=7
(8a/L	Ruh'
8ccJ)	.
8ff	ich
(8ddL	fin-
8b-J)	.
8g	-den
=8	=8
(>4f	wer-
8e)	.
4f}	-de,
!LO:TX:a:t=dolce	!
{8g	das
=9	=9
4g	forſcht
8ass	mein
4b-/	Geiſt
8g	und
=10	=10
4a	ſinnt
8b-/ss	und
4cc}	denkt,
{8ff	und
=11	=11
4.ff	fleht
4.a	ʒur
=12	=12
4.g	Vor-
4.dd}	-ſicht
=13	=13
{4.cc	die
4.e	ſie
=14	=14
4.f	ſchenkt.
4r}	.
==	==
!!!AGN: Trost - Lied
!!!ONB: ESAC (Essen Associative Code) Database: FINK
!!!AMT: compound duple
!!!AIN: vox
!!!EED: Helmut Schaffrath
!!!EEV: 1.0
!!Text: W. Uelzen
!!!RDF**kern: > = above
!!!GTL: Trauer- Begraebniss- und Trostlieder
!!!URL-scan: https://www.digitale-sammlungen.de/en/view/bsb11144622?page=660
!!!ENC: Anna Maria Matuszewska
!!!EEV: 2024/08/09
*-	*-
